X:1
T:Anglais
T:efter Alfred Petersson, Nttraby, Blekinge (SvL, Band 18, nr 304)
O:Nttraby, Blekinge
S:Svenska Ltar
N:Svenska Ltar, Band 18 nr 304
R:Anglais
C:Alfred Petersson
M:2/4
L:1/16
Q:1/4=80
Z:Konverterad till abc-format av  Olle Paulsson 05-01-03
K:F
c2|fgfe fgfe|fcfa gbge|fefg fefg|(fc)fa g4|
gage fefa|gece fefa|gece fefa|gagf edc=B|c4 z2:|
|:c2|EGce gbge|fafc AcAF|EGce gbge|gbgf edc=B|
cAFA BcdB|cABc defd|cdcB AGFE|F2F2 F2:|
